X:56
T:Egloshayle ringers - Martyn
%%VWML:SBG-1-2-114-0
F:http://www.vwml.org/record/SBG/1/2/114
Z:Original Sibelius transcriptions by M. & S. Graebe
M:6/8
I:linebreak $
K:C
V:1 treble nm="P1"
V:1
 E | A2 A A2 G | A2 A A2 B | c2 c d2 c | B3- B2 B | A2 A A2 G |$ A2 A A2 B | c2 B c2 d | e3- e2 e | %9
 e e e ed d | d2 B c2 c |$ d2 d c2 c | B3- B2 c | e2 e e2 e | d2 d d2 d | c2 c B2 B | (A3 A2) x | %17
T:Egloshayle ringers - old man Tavistock
F:http://www.vwml.org/record/SBG/1/2/114
Z:Original Sibelius transcriptions by M. & S. Graebe
M:6/8
I:linebreak $
K:C
V:1 treble nm="P1"
V:1
 G | c2 c G2 E | A2 F C2 D | E2 F D2 D | C3- C2 D | G2 G E2 F | GA F D2 D | (D3 D2) D |$ %8
 F F F C2 E | G2 G E2 G | c2 c B2 B | (A3 G2) G | c2 d e2 c | A2 F E2 C | E2 G D2 D | C2 x x3 | %16

